src/icons/pom.svg

<?xml version="1.0" encoding="UTF-8"?>
<svg xmlns="http://www.w3.org/2000/svg" xmlns:xlink="http://www.w3.org/1999/xlink" width="23.04" height="32" viewBox="0 0 23.04 32" version="1.1">
<defs>
<linearGradient id="linear0" gradientUnits="userSpaceOnUse" x1="36.200001" y1="3.014" x2="36.200001" y2="101.000999" gradientTransform="matrix(1,0,0,-1,0,102)">
<stop offset="0" style="stop-color:rgb(78.431374%,83.137256%,85.882354%);stop-opacity:1;"/>
<stop offset="0.139" style="stop-color:rgb(84.705883%,88.235295%,90.196079%);stop-opacity:1;"/>
<stop offset="0.359" style="stop-color:rgb(92.156863%,94.117647%,95.294118%);stop-opacity:1;"/>
<stop offset="0.617" style="stop-color:rgb(97.647059%,98.039216%,98.431373%);stop-opacity:1;"/>
<stop offset="1" style="stop-color:rgb(100%,100%,100%);stop-opacity:1;"/>
</linearGradient>
<linearGradient id="linear1" gradientUnits="userSpaceOnUse" x1="31.747" y1="69.934998" x2="31.747" y2="69.986" gradientTransform="matrix(0.32,0,0,-0.32,0,32.64)">
<stop offset="0" style="stop-color:rgb(67.843139%,80.000001%,86.274511%);stop-opacity:1;"/>
<stop offset="1" style="stop-color:rgb(29.803923%,42.352942%,48.235294%);stop-opacity:1;"/>
</linearGradient>
<linearGradient id="linear2" gradientUnits="userSpaceOnUse" x1="45.324001" y1="74.183998" x2="58.870998" y2="87.731003" gradientTransform="matrix(0.32,0,0,-0.32,0,32.64)">
<stop offset="0" style="stop-color:rgb(100%,100%,100%);stop-opacity:1;"/>
<stop offset="0.35" style="stop-color:rgb(98.039216%,98.431373%,98.431373%);stop-opacity:1;"/>
<stop offset="0.532" style="stop-color:rgb(92.941177%,94.509804%,95.686275%);stop-opacity:1;"/>
<stop offset="0.675" style="stop-color:rgb(86.666667%,89.803922%,91.37255%);stop-opacity:1;"/>
<stop offset="0.799" style="stop-color:rgb(78.039217%,82.745099%,85.490197%);stop-opacity:1;"/>
<stop offset="0.908" style="stop-color:rgb(67.843139%,74.117649%,78.039217%);stop-opacity:1;"/>
<stop offset="1" style="stop-color:rgb(57.254905%,64.705884%,69.01961%);stop-opacity:1;"/>
</linearGradient>
<linearGradient id="linear3" gradientUnits="userSpaceOnUse" x1="22.788" y1="46" x2="57.212002" y2="46" gradientTransform="matrix(0.32,0,0,0.32,0,0)">
<stop offset="0" style="stop-color:rgb(67.843139%,80.000001%,86.274511%);stop-opacity:1;"/>
<stop offset="1" style="stop-color:rgb(29.803923%,42.352942%,48.235294%);stop-opacity:1;"/>
</linearGradient>
</defs>
<g id="surface1">
<path style="fill-rule:nonzero;fill:url(#linear0);stroke-width:2;stroke-linecap:butt;stroke-linejoin:miter;stroke:rgb(44.313726%,56.862748%,63.137257%);stroke-opacity:1;stroke-miterlimit:4;" d="M 45.202637 1.000977 L 72.302246 27.697754 L 72.302246 98.999023 L 0.0976562 98.999023 L 0.0976562 1.000977 Z M 45.202637 1.000977 " transform="matrix(0.32,0,0,0.32,0,0)"/>
<path style=" stroke:none;fill-rule:nonzero;fill:rgb(29.803923%,42.352942%,48.235294%);fill-opacity:1;" d="M 2.113281 28.832031 L 2.113281 22.464844 L 4.191406 22.464844 C 4.992188 22.464844 5.503906 22.496094 5.726562 22.558594 C 6.113281 22.65625 6.398438 22.847656 6.65625 23.167969 C 6.910156 23.488281 7.039062 23.902344 7.039062 24.414062 C 7.039062 24.800781 6.976562 25.121094 6.816406 25.40625 C 6.6875 25.664062 6.496094 25.886719 6.273438 26.046875 C 6.046875 26.207031 5.824219 26.304688 5.601562 26.335938 C 5.28125 26.398438 4.832031 26.433594 4.257812 26.433594 L 3.425781 26.433594 L 3.425781 28.832031 Z M 3.425781 23.550781 L 3.425781 25.34375 L 4.128906 25.34375 C 4.640625 25.34375 4.992188 25.3125 5.152344 25.246094 C 5.3125 25.183594 5.472656 25.089844 5.566406 24.929688 C 5.664062 24.800781 5.726562 24.609375 5.726562 24.449219 C 5.726562 24.222656 5.664062 24.03125 5.535156 23.871094 C 5.40625 23.710938 5.214844 23.617188 5.023438 23.585938 C 4.863281 23.550781 4.542969 23.550781 4.097656 23.550781 Z M 7.839844 25.695312 C 7.839844 25.054688 7.9375 24.511719 8.128906 24.0625 C 8.289062 23.742188 8.480469 23.457031 8.734375 23.199219 C 8.992188 22.945312 9.28125 22.753906 9.566406 22.625 C 9.984375 22.464844 10.433594 22.367188 10.945312 22.367188 C 11.902344 22.367188 12.640625 22.65625 13.214844 23.230469 C 13.792969 23.808594 14.078125 24.609375 14.078125 25.664062 C 14.078125 26.6875 13.792969 27.488281 13.246094 28.0625 C 12.703125 28.640625 11.9375 28.929688 10.976562 28.929688 C 10.015625 28.929688 9.246094 28.640625 8.703125 28.0625 C 8.160156 27.488281 7.839844 26.6875 7.839844 25.695312 Z M 9.183594 25.632812 C 9.183594 26.335938 9.34375 26.878906 9.695312 27.265625 C 10.046875 27.648438 10.464844 27.808594 10.976562 27.808594 C 11.488281 27.808594 11.902344 27.617188 12.257812 27.265625 C 12.609375 26.910156 12.769531 26.335938 12.769531 25.601562 C 12.769531 24.863281 12.609375 24.320312 12.289062 23.96875 C 11.96875 23.617188 11.519531 23.425781 11.007812 23.425781 C 10.496094 23.425781 10.046875 23.617188 9.726562 23.96875 C 9.34375 24.351562 9.183594 24.929688 9.183594 25.632812 Z M 15.105469 28.832031 L 15.105469 22.464844 L 17.054688 22.464844 L 18.207031 26.785156 L 19.359375 22.464844 L 21.3125 22.464844 L 21.3125 28.800781 L 20.097656 28.800781 L 20.097656 23.839844 L 18.816406 28.832031 L 17.566406 28.832031 L 16.289062 23.839844 L 16.289062 28.832031 Z M 15.105469 28.832031 "/>
<path style=" stroke:none;fill-rule:nonzero;fill:url(#linear1);" d="M 10.175781 10.238281 C 10.144531 10.273438 10.144531 10.273438 10.175781 10.238281 "/>
<path style=" stroke:none;fill-rule:nonzero;fill:url(#linear2);" d="M 14.464844 0.320312 L 23.136719 8.863281 L 14.464844 8.863281 Z M 14.464844 0.320312 "/>
<path style=" stroke:none;fill-rule:nonzero;fill:url(#linear3);" d="M 18.078125 8.671875 C 18.078125 8.671875 13.472656 8.734375 10.527344 12.480469 C 10.367188 12.703125 10.207031 12.894531 10.046875 13.121094 C 9.953125 13.246094 9.855469 14.527344 9.855469 14.527344 C 9.855469 14.527344 9.726562 14.433594 9.664062 14.273438 C 9.566406 14.078125 9.535156 13.855469 9.535156 13.855469 C 7.871094 16.574219 8.351562 17.984375 8.351562 17.984375 C 8.222656 18.304688 7.96875 18.496094 7.617188 19.230469 C 7.265625 19.96875 7.296875 20.671875 7.296875 20.671875 C 7.296875 20.800781 7.328125 20.832031 7.390625 20.703125 C 7.390625 20.703125 7.777344 19.96875 8.0625 19.488281 C 8.257812 19.167969 8.832031 18.433594 8.832031 18.433594 C 8.832031 18.433594 9.792969 18.464844 10.945312 18.175781 C 10.847656 18.144531 10.527344 18.046875 10.304688 17.953125 C 10.078125 17.855469 9.953125 17.695312 9.953125 17.695312 L 14.078125 16.734375 C 14.65625 16.382812 15.167969 15.96875 15.585938 15.457031 C 17.761719 12.863281 18.304688 8.894531 18.304688 8.894531 C 18.335938 8.769531 18.238281 8.671875 18.078125 8.671875 Z M 13.984375 12.800781 C 13.984375 12.800781 12.0625 14.496094 11.105469 15.390625 C 10.144531 16.289062 8.863281 18.433594 8.863281 18.433594 L 8.382812 17.984375 C 8.382812 17.984375 8.734375 17.121094 10.144531 15.390625 C 11.550781 13.664062 13.921875 12.640625 13.921875 12.640625 C 14.207031 12.511719 14.238281 12.574219 13.984375 12.800781 Z M 13.984375 12.800781 "/>
<path style="fill:none;stroke-width:2;stroke-linecap:butt;stroke-linejoin:bevel;stroke:rgb(44.313726%,56.862748%,63.137257%);stroke-opacity:1;stroke-miterlimit:4;" d="M 45.202637 1.000977 L 72.302246 27.697754 L 45.202637 27.697754 Z M 45.202637 1.000977 " transform="matrix(0.32,0,0,0.32,0,0)"/>
</g>
</svg>

<svg role="img" viewBox="0 0 23.04 32" xmlns="http://www.w3.org/2000/svg" xmlns:xlink="http://www.w3.org/1999/xlink"><defs><linearGradient gradientTransform="matrix(1 0 0 -1 0 102)" gradientUnits="userSpaceOnUse" id="a" x1="36.2" x2="36.2" y1="3.014" y2="101.001"><stop offset="0" style="stop-color:rgb(78.431374%,83.137256%,85.882354%);stop-opacity:1"/><stop offset=".139" style="stop-color:rgb(84.705883%,88.235295%,90.196079%);stop-opacity:1"/><stop offset=".359" style="stop-color:rgb(92.156863%,94.117647%,95.294118%);stop-opacity:1"/><stop offset=".617" style="stop-color:rgb(97.647059%,98.039216%,98.431373%);stop-opacity:1"/><stop offset="1" style="stop-color:rgb(100%,100%,100%);stop-opacity:1"/></linearGradient><linearGradient gradientTransform="matrix(.32 0 0 -.32 0 32.64)" gradientUnits="userSpaceOnUse" id="b" x1="31.747" x2="31.747" y1="69.935" y2="69.986"><stop offset="0" style="stop-color:rgb(67.843139%,80.000001%,86.274511%);stop-opacity:1"/><stop offset="1" style="stop-color:rgb(29.803923%,42.352942%,48.235294%);stop-opacity:1"/></linearGradient><linearGradient gradientTransform="matrix(.32 0 0 -.32 0 32.64)" gradientUnits="userSpaceOnUse" id="c" x1="45.324" x2="58.871" y1="74.184" y2="87.731"><stop offset="0" style="stop-color:rgb(100%,100%,100%);stop-opacity:1"/><stop offset=".35" style="stop-color:rgb(98.039216%,98.431373%,98.431373%);stop-opacity:1"/><stop offset=".532" style="stop-color:rgb(92.941177%,94.509804%,95.686275%);stop-opacity:1"/><stop offset=".675" style="stop-color:rgb(86.666667%,89.803922%,91.37255%);stop-opacity:1"/><stop offset=".799" style="stop-color:rgb(78.039217%,82.745099%,85.490197%);stop-opacity:1"/><stop offset=".908" style="stop-color:rgb(67.843139%,74.117649%,78.039217%);stop-opacity:1"/><stop offset="1" style="stop-color:rgb(57.254905%,64.705884%,69.01961%);stop-opacity:1"/></linearGradient><linearGradient gradientTransform="scale(.32)" gradientUnits="userSpaceOnUse" id="d" x1="22.788" x2="57.212" y1="46" y2="46"><stop offset="0" style="stop-color:rgb(67.843139%,80.000001%,86.274511%);stop-opacity:1"/><stop offset="1" style="stop-color:rgb(29.803923%,42.352942%,48.235294%);stop-opacity:1"/></linearGradient></defs><path d="m45.203 1.001 27.1 26.697v71.301H.097V1.001Zm0 0" style="fill-rule:nonzero;fill:url(#a);stroke-width:2;stroke-linecap:butt;stroke-linejoin:miter;stroke:rgb(44.313726%,56.862748%,63.137257%);stroke-opacity:1;stroke-miterlimit:4" transform="scale(.32)"/><path d="M2.113 28.832v-6.367h2.078c.801 0 1.313.031 1.536.094.386.097.671.289.93.609.253.32.382.734.382 1.246 0 .387-.062.707-.223.992a1.77 1.77 0 0 1-.543.64 1.53 1.53 0 0 1-.671.29c-.32.062-.77.098-1.344.098h-.832v2.398Zm1.313-5.281v1.793h.703c.512 0 .863-.032 1.023-.098.16-.062.32-.156.414-.316a.89.89 0 0 0-.031-1.059.827.827 0 0 0-.512-.285c-.16-.035-.48-.035-.925-.035Zm4.414 2.144c0-.64.098-1.183.289-1.633.16-.32.351-.605.605-.863a2.9 2.9 0 0 1 .832-.574c.418-.16.868-.258 1.38-.258.956 0 1.695.29 2.269.863.578.579.863 1.38.863 2.434 0 1.023-.285 1.824-.832 2.398-.543.579-1.309.868-2.27.868-.96 0-1.73-.29-2.273-.867-.543-.575-.863-1.375-.863-2.368m1.344-.062c0 .703.16 1.246.511 1.633.352.382.77.543 1.282.543.511 0 .925-.192 1.28-.543.352-.356.513-.93.513-1.664 0-.739-.16-1.282-.48-1.633-.321-.352-.77-.543-1.282-.543s-.961.191-1.281.543c-.383.383-.543.96-.543 1.664m5.921 3.199v-6.367h1.95l1.152 4.32 1.152-4.32h1.953V28.8h-1.214v-4.96l-1.282 4.992h-1.25L16.29 23.84v4.992Zm0 0" style="stroke:none;fill-rule:nonzero;fill:rgb(29.803923%,42.352942%,48.235294%);fill-opacity:1"/><path d="M10.176 10.238c-.031.035-.031.035 0 0" style="stroke:none;fill-rule:nonzero;fill:url(#b)"/><path d="m14.465.32 8.672 8.543h-8.672Zm0 0" style="stroke:none;fill-rule:nonzero;fill:url(#c)"/><path d="M18.078 8.672s-4.605.062-7.55 3.808c-.16.223-.321.415-.481.641-.094.125-.192 1.406-.192 1.406s-.128-.093-.19-.254c-.099-.195-.13-.418-.13-.418-1.664 2.72-1.183 4.13-1.183 4.13-.13.32-.383.511-.735 1.245-.351.739-.32 1.442-.32 1.442 0 .129.031.16.094.031 0 0 .386-.734.672-1.215.195-.32.769-1.054.769-1.054s.961.03 2.113-.258c-.097-.031-.418-.13-.64-.223-.227-.098-.352-.258-.352-.258l4.125-.96c.578-.352 1.09-.766 1.508-1.278 2.176-2.594 2.719-6.562 2.719-6.562.03-.125-.067-.223-.227-.223M13.984 12.8s-1.921 1.695-2.879 2.59c-.96.898-2.242 3.043-2.242 3.043l-.48-.45s.351-.863 1.762-2.593c1.406-1.727 3.777-2.75 3.777-2.75.285-.13.316-.067.062.16m0 0" style="stroke:none;fill-rule:nonzero;fill:url(#d)"/><path d="m45.203 1.001 27.1 26.697h-27.1Zm0 0" style="fill:none;stroke-width:2;stroke-linecap:butt;stroke-linejoin:bevel;stroke:rgb(44.313726%,56.862748%,63.137257%);stroke-opacity:1;stroke-miterlimit:4" transform="scale(.32)"/></svg>
